ci/cib-intercom.svg

<svg xmlns="http://www.w3.org/2000/svg" viewBox="0 0 32 32" height="1em" width="1em">
  <path d="M28 0h-24c-2.208 0-4 1.792-4 4v24c0 2.208 1.792 4 4 4h24c2.208 0 4-1.792 4-4v-24c0-2.208-1.792-4-4-4zM20.266 5.865c0-0.583 0.479-1.068 1.068-1.068s1.068 0.484 1.068 1.068v14.25c0 0.589-0.479 1.068-1.068 1.068s-1.068-0.479-1.068-1.068zM14.932 5.323c0-0.583 0.479-1.063 1.068-1.063s1.068 0.479 1.068 1.063v15.474c0 0.583-0.479 1.063-1.068 1.063s-1.068-0.479-1.068-1.063zM9.599 5.865c0-0.583 0.479-1.068 1.068-1.068s1.068 0.484 1.068 1.068v14.25c0 0.589-0.479 1.068-1.068 1.068s-1.068-0.479-1.068-1.068zM4.266 8c0-0.589 0.479-1.068 1.068-1.068s1.068 0.479 1.068 1.068v9.594c0 0.589-0.479 1.068-1.068 1.068s-1.068-0.479-1.068-1.068zM27.359 24.271c-0.161 0.141-4.115 3.458-11.359 3.458s-11.198-3.318-11.359-3.458c-0.448-0.385-0.5-1.057-0.115-1.505 0.38-0.448 1.052-0.5 1.5-0.12 0.063 0.052 3.589 2.948 9.974 2.948 6.464 0 9.938-2.917 9.969-2.943 0.448-0.385 1.12-0.333 1.505 0.115s0.333 1.12-0.115 1.505zM27.734 17.594c0 0.589-0.479 1.068-1.068 1.068s-1.068-0.479-1.068-1.068v-9.594c0-0.589 0.479-1.068 1.068-1.068s1.068 0.479 1.068 1.068z"/>
</svg>

<svg xmlns="http://www.w3.org/2000/svg" viewBox="0 0 32 32" height="1em" width="1em">
  <path d="M28 0H4C1.792 0 0 1.792 0 4v24c0 2.208 1.792 4 4 4h24c2.208 0 4-1.792 4-4V4c0-2.208-1.792-4-4-4zm-7.734 5.865c0-.583.479-1.068 1.068-1.068s1.068.484 1.068 1.068v14.25a1.07 1.07 0 0 1-2.136 0zm-5.334-.542a1.069 1.069 0 0 1 2.136 0v15.474a1.069 1.069 0 0 1-2.136 0zm-5.333.542c0-.583.479-1.068 1.068-1.068s1.068.484 1.068 1.068v14.25a1.07 1.07 0 0 1-2.136 0zM4.266 8a1.07 1.07 0 0 1 2.136 0v9.594a1.07 1.07 0 0 1-2.136 0zm23.093 16.271c-.161.141-4.115 3.458-11.359 3.458S4.802 24.411 4.641 24.271a1.066 1.066 0 0 1-.115-1.505c.38-.448 1.052-.5 1.5-.12.063.052 3.589 2.948 9.974 2.948 6.464 0 9.938-2.917 9.969-2.943.448-.385 1.12-.333 1.505.115s.333 1.12-.115 1.505zm.375-6.677a1.07 1.07 0 0 1-2.136 0V8a1.07 1.07 0 0 1 2.136 0z"/>
</svg>
